X:1

T:Barony Jig, The [2]

M:9/8

L:1/8

R:Set Dance

S:O’Neill – Dance Music of Ireland: 1001 Gems (1907), No. 970

Z:AK/Fiddler’s Companion

K:A Minor

B|c2A c2A AGE|c2A ABd e2d|c2A c2A AGE|GED DEG A2B|

c2A c2A AGE|c2A ABd e2d|c2A efd cBA|GED DEG A2:|

|:B|c2d ecA AGE|c2d e/f/ed e2d|c2d ecA AGE|GED DEG A2B|

c2d ecA AGE|c2d e/f/ed e2e|cde ged ecA|GED DEG A2:|

                       

BARR AIRGIODGA, AN. AKA and see "The Silver Tip [1]."

                       

BARR AN CHNUIC (The Hill Top). Irish, Air (6/8). F Major. Standard tuning. One part. Roche Collection, 1982; vol. III, pg. 4, #12.

                       

BARR AN tSLEIBHE (The Mountain Top). AKA and see “The Mountain Top [2].”

                       

BARR NA FEIRSTE. AKA and see “Behind the Haystack [1],” “(An) Bhláthach Mhuimhneach,” “Munster Buttermilk [1],” “Squeeze Your Thighs,” “Take Her or Leave Her.”

                       

BARRACK HILL [1] (Cnoc an t-Sluaigteac). Irish, English; Single Jig or Slide (12/8 time). Ireland, Munster. A Dorian. Standard tuning. AAB (Moylan, Sharp): AABB (Karpeles, O’Neill, Raven, Roche, Stanford/Petrie). A slide-time version of the melody known as “Haughs o’ Cromdale,” “O’Neill’s March [2]” and “Tralee Gaol.” Editor Moylan notes the melody has also been known as “The cat jumped into the mouse’s hole and didn’t come down till morning.” Petrie (1855) identifies the melody as “a Munster jig” and remarks that “it had a peculiar kind of dance.” He also adds “Same as a Scotch tune.” Source for notated version: accordion player Johnny O’Leary (Sliabh Luachra region of the Cork-Kerry border) [Moylan]. Karpeles & Schofield (A Selection of 100 English Folk Dance Airs), 1951; pg. 25. Moylan (Johnny O’Leary), 1994; No. 320, pg. 183. O'Neill (Dance Music of Ireland: 1001 Gems), 1907/1986; No. 410, pg. 81. Raven (English Country Dance Tunes), 1984; pg. 178. Roche Collection, 1982, vol. II; No. 250, pg. 23. Sharp (Country Dance Tunes), 1909/1994; pg. 57.

